X:1
T:Captain Fletcher's Favorite
T:Captain Fletcher's Favorite
T:Nathaniel Gow (1763-1831)
C:Nathaniel Gow (1763-1831)
L:1/8
Q:1/4=120
M:4/4
K:F
V:1 treble 
V:1
"^Slow" A/>G/ | FCC>E (F/E/).F/.G/ FA/B/ | cc dd G3 A/>G/ | FCC>E TF>G A/c/d/e/ | ff aa A3 :| %5
 A/B/ | (c/d/)(e/f/) (g/a/)(e/g/) fd df/d/ | cc dd G3 A/>B/ | (c/d/)(e/f/) (g/a/)(e/g/) ffgg | %9
 aa{G} A3 f/d/ | Tc>d Tf>a{a} g/f/(g/a/) f>d | cc dd G3{B} A/>G/ | FF DD CC A, Tf/g/ | %13
 aa [Ec][Ec] [FA]3 ||"^Dolce" (F/A/c/) | c2 BA A2 Bc | (dB) TG>F{F} E2 (F/G/)(A/B/) | %17
 c3/2(d/4c/4) BA Td>e fd | cA BG F/A/B/c/ d/e/f/g/ | a2 gf{e} d3 f/d/ | cc fa (a2 g) f/g/ | %21
 a3/2b/4a/4 gf (e/d/)(f/e/) (g/f/)(e/d/) | cA BG F3 || %23

